X: 43662
T: Ølland
R: waltz
M: 3/4
K: Aminor
AB|"Am"c2 cd "G"Bc|"Am"A3 B cd|"Em"e2 g2 "D"^f2|"Am"e4 AB|
"Am"c2 cd "G"Bc|"F"A3 B cd|"C"e2 g2 "D"^f2|"E"e4 cd||
|:"C"e2 c2 ec|c2 ec eg|"D"^f2 d2 fd|"Bm7"d2 ^fd fg|
"Am"e3/2^f/ ed cB|"F"A2 c2 cc|"G"B2 G2 G2||1 "Am"A4 e2:|2 "Am"A4||

